X: 12914
T: Fiddle Cushion, The
R: reel
M: 4/4
K: Gmajor
G3E DB,G,B,|CB,CD EGGF|G3E DB,G,B,|A,2A,B, DFFD|
G3E DB,G,B,|CB,CD EGGF|G2 EG DEB,D|A,DDC B,G,G,F:|
G3A BddB|cBcd eggf|edBA B3 c|dAAG FDDF|
G2BG DGBd|cBcd eggf|g2 eg deBd|1 Addc BGDF:|2 Addc BGGF||
EccE cdec|d2BG D3 B|dcAF DFAd|edd^c d2GF|
EccE cdec|BcdB G2 FG|EGce dBGE|DcBA G3 D|
EccE cdec|dBGE D3 B|dcAF DFAd|edd^c d3 g|
edcd edef|gage dBGB|c2ec dBBd|cAAc BGAF||

